icon/pk/take-off.svg

<svg viewBox="0 0 48 48" fill="none" xmlns="http://www.w3.org/2000/svg" height="1em" width="1em">
  <path d="M22 29L13.7763 33.1118C12.6994 33.6503 11.4049 33.4927 10.4886 32.7117L4 27.1808L7.56226 25.8157C8.19869 25.5718 8.8992 25.5519 9.54846 25.7592L12.8273 26.8063C13.5787 27.0463 14.3944 26.9807 15.0977 26.6237L37.36 15.3248C37.7807 15.1113 38.2459 15 38.7177 15H44L42.4472 18.1056C42.1569 18.6862 41.6862 19.1569 41.1056 19.4472L32 24" stroke="black" stroke-width="4" stroke-linecap="round" stroke-linejoin="round"/>
  <path d="M22.0007 29L18.0003 31L23.0003 41L32.0003 24" stroke="black" stroke-width="4" stroke-linecap="round" stroke-linejoin="round"/>
  <path d="M17 25L12 16L28 20" stroke="black" stroke-width="4" stroke-linecap="round" stroke-linejoin="round"/>
</svg>

<svg width="48" height="48" fill="none" xmlns="http://www.w3.org/2000/svg"><path d="m22 29-8.224 4.112a3 3 0 0 1-3.287-.4L4 27.18l3.562-1.365a3 3 0 0 1 1.986-.057l3.28 1.047a3 3 0 0 0 2.27-.182l22.262-11.3A3 3 0 0 1 38.718 15H44l-1.553 3.106a3 3 0 0 1-1.341 1.341L32 24" stroke="#000" stroke-width="4" stroke-linecap="round" stroke-linejoin="round"/><path d="m22 29-4 2 5 10 9-17M17 25l-5-9 16 4" stroke="#000" stroke-width="4" stroke-linecap="round" stroke-linejoin="round"/></svg>
